src/topics/icons/unity.svg

<svg height="263" preserveAspectRatio="xMidYMid" viewBox="0 0 256 263" width="256" xmlns="http://www.w3.org/2000/svg"><path d="m166.872326 131.23686 45.908792-79.2745128 22.184451 79.2745128-22.184451 79.256383zm-22.376403 12.873657 45.916256 79.262782-79.96661-20.486732-57.7704291-58.77605zm45.905592-105.0324909-45.905592 79.2745129h-91.8207831l57.7704291-58.7792499zm65.539199 65.1808869-28.008095-104.19856107-104.539811 27.92491577-15.474622 27.2072242-31.4014002-.2250117-76.5167858 76.2768448 76.5167858 76.258715h.0031992l31.387537-.232476 15.497017 27.207224 104.52808 27.92065 28.008095-104.179366-15.90545-26.982212z" fill="#222c37"/></svg>

<?xml version="1.0" encoding="UTF-8" standalone="no"?>
<svg width="256px" height="263px" viewBox="0 0 256 263" version="1.1" xmlns="http://www.w3.org/2000/svg" xmlns:xlink="http://www.w3.org/1999/xlink" preserveAspectRatio="xMidYMid">
	<g fill="#222C37">
		<path d="M166.872326,131.23686 L212.781118,51.9623472 L234.965569,131.23686 L212.781118,210.493243 L166.872326,131.23686 L166.872326,131.23686 Z M144.495923,144.110517 L190.412179,223.373299 L110.445569,202.886567 L52.6751399,144.110517 L144.495923,144.110517 L144.495923,144.110517 Z M190.401515,39.0780261 L144.495923,118.352539 L52.6751399,118.352539 L110.445569,59.5732891 L190.401515,39.0780261 L190.401515,39.0780261 Z M255.940714,104.258913 L227.932619,0.0603519323 L123.392808,27.9852677 L107.918186,55.1924919 L76.5167858,54.9674802 L0,131.244325 L76.5167858,207.50304 L76.519985,207.50304 L107.907522,207.270564 L123.404539,234.477788 L227.932619,262.398438 L255.940714,158.219072 L240.035264,131.23686 L255.940714,104.258913 L255.940714,104.258913 Z"></path>
	</g>
</svg>
